example/android/src/androidTest/assets/test_correct.cube
LUT_3D_SIZE 6
0.009325 0.040173 0.039843
0.116512 0.055590 0.033574
0.301317 0.068580 0.000871
0.492804 0.067493 0.000000
0.659028 0.074773 0.000000
0.798261 0.093745 0.000000
0.000000 0.127701 0.038435
0.142778 0.133283 0.029568
0.370337 0.146984 0.000000
0.580354 0.176784 0.000000
0.721292 0.203103 0.000000
0.830140 0.233717 0.000000
0.000000 0.226741 0.044544
0.163086 0.245194 0.013460
0.454586 0.272873 0.000000
0.658783 0.278038 0.000000
0.775360 0.306690 0.000000
0.860164 0.354527 0.000000
0.000000 0.332018 0.056586
0.203427 0.366546 0.000000
0.549495 0.461719 0.000000
0.727085 0.471809 0.000000
0.814303 0.453664 0.000000
0.883380 0.462914 0.000000
0.000000 0.441103 0.070286
0.243408 0.489736 0.000000
0.598113 0.611660 0.000000
0.773836 0.675268 0.000000
0.868916 0.665645 0.000000
0.920156 0.617150 0.000000
0.000000 0.535052 0.081932
0.256005 0.591575 0.000000
0.607882 0.720346 0.000000
0.794785 0.786145 0.000000
0.892098 0.810692 0.000000
0.967607 0.813671 0.000000
0.000000 0.054361 0.119324
0.156304 0.073193 0.121876
0.381087 0.080572 0.084269
0.594646 0.059927 0.051524
0.737486 0.060473 0.051524
0.838073 0.052156 0.051524
0.000000 0.148706 0.163320
0.064168 0.160764 0.176856
0.368285 0.183969 0.147635
0.613701 0.171493 0.083086
0.763567 0.160596 0.053607
0.867714 0.170710 0.051524
0.000000 0.274253 0.196499
0.050306 0.280751 0.151804
0.453262 0.315636 0.091155
0.702913 0.299854 0.052075
0.835760 0.335111 0.051524
0.923953 0.383029 0.051524
0.000000 0.350755 0.195805
0.056666 0.397604 0.123353
0.537284 0.496036 0.053137
0.767259 0.514051 0.051524
0.854033 0.481795 0.051524
0.911761 0.501235 0.051524
0.000000 0.433880 0.218248
0.067128 0.510285 0.088122
0.557192 0.621061 0.051524
0.809435 0.710598 0.051524
0.881915 0.687388 0.051524
0.925744 0.630734 0.051524
0.000000 0.513940 0.233546
0.067141 0.604935 0.065969
0.557522 0.714034 0.051524
0.819880 0.811436 0.051524
0.910989 0.826640 0.051524
0.967590 0.814249 0.051524
0.000000 0.085611 0.222340
0.080248 0.084232 0.232719
0.452290 0.106395 0.179671
0.651576 0.075455 0.127757
0.780352 0.070403 0.113930
0.880957 0.082955 0.112482
0.000000 0.176609 0.271785
0.050306 0.197255 0.311851
0.432346 0.209260 0.265585
0.668838 0.195139 0.226320
0.804733 0.187670 0.209744
0.894222 0.187138 0.185914
0.000000 0.336275 0.382026
0.050306 0.387420 0.444605
0.329618 0.375742 0.407682
0.683463 0.400633 0.389052
0.851533 0.412948 0.377523
0.948941 0.409722 0.339841
0.000000 0.553306 0.518510
0.050306 0.543985 0.495540
0.259007 0.528441 0.341826
0.769201 0.591459 0.296292
0.902820 0.571437 0.312226
0.997742 0.614545 0.289839
0.000000 0.647644 0.538230
0.050306 0.598929 0.465476
0.350485 0.647701 0.293716
0.806665 0.749192 0.249299
0.947122 0.748814 0.135621
1.000020 0.704182 0.157278
0.000000 0.660193 0.480435
0.050306 0.644371 0.436642
0.398763 0.737899 0.213374
0.786991 0.831079 0.224237
0.951593 0.875125 0.166100
1.000020 0.853938 0.103007
0.000000 0.123886 0.334294
0.050306 0.112908 0.330919
0.396759 0.144991 0.303863
0.700661 0.107262 0.201212
0.812497 0.105111 0.188571
0.896333 0.127018 0.198012
0.000000 0.222092 0.390575
0.050306 0.255489 0.445846
0.365244 0.229064 0.406135
0.712774 0.222999 0.313169
0.825753 0.222987 0.311251
0.916529 0.244226 0.339130
0.000000 0.364801 0.495198
0.050306 0.405081 0.549194
0.150734 0.391237 0.569680
0.712148 0.418363 0.511459
0.861994 0.443676 0.527029
0.953712 0.447317 0.521124
0.000000 0.530327 0.599108
0.050306 0.575653 0.649045
0.100601 0.632494 0.704192
0.685621 0.660377 0.663288
0.883151 0.685364 0.662490
0.986483 0.686652 0.639519
0.000000 0.695832 0.696800
0.050306 0.721794 0.722725
0.100601 0.742212 0.723291
0.673933 0.783068 0.620144
0.923964 0.822469 0.589156
1.000081 0.825795 0.617389
0.000000 0.797409 0.750970
0.050306 0.773119 0.702109
0.100601 0.778556 0.650815
0.683615 0.865121 0.531157
0.922455 0.914837 0.577856
1.000020 0.910226 0.448819
0.000000 0.171658 0.450825
0.050306 0.152190 0.432805
0.379272 0.168707 0.413384
0.684825 0.155421 0.332980
0.835062 0.147463 0.316476
0.913428 0.171116 0.360600
0.000000 0.264561 0.499214
0.050306 0.301741 0.556761
0.252885 0.241352 0.526942
0.675596 0.277474 0.473223
0.852166 0.280903 0.477841
0.933742 0.302186 0.500172
0.000000 0.401019 0.598757
0.050306 0.432087 0.642377
0.100601 0.438075 0.701351
0.678760 0.431140 0.671856
0.875185 0.465054 0.659719
0.961282 0.495775 0.669883
0.000000 0.544926 0.695017
0.050306 0.578988 0.734195
0.100601 0.616142 0.777249
0.576603 0.659141 0.805091
0.888244 0.688608 0.780384
0.981833 0.708227 0.780481
0.000000 0.679954 0.762403
0.050306 0.703835 0.786379
0.100601 0.745240 0.824069
0.433759 0.818223 0.856935
0.884357 0.859074 0.842872
0.992443 0.869071 0.839492
0.000000 0.794796 0.815324
0.050306 0.804380 0.826600
0.100601 0.808740 0.832975
0.193253 0.879098 0.833079
0.877299 0.941040 0.805447
1.000020 0.955014 0.778729
0.000000 0.238848 0.588116
0.050306 0.218861 0.564530
0.289392 0.187410 0.548314
0.663018 0.228743 0.521087
0.841776 0.235888 0.545241
0.940453 0.268016 0.608377
0.000000 0.315244 0.617948
0.050306 0.343521 0.665792
0.100630 0.291762 0.656857
0.661985 0.312728 0.664281
0.846355 0.335937 0.669863
0.950633 0.367877 0.717195
0.000000 0.446473 0.713746
0.050306 0.465934 0.740918
0.100601 0.496859 0.805042
0.523580 0.443866 0.812923
0.861058 0.478901 0.829098
0.967986 0.517934 0.834338
0.000000 0.571692 0.788947
0.050306 0.592712 0.811442
0.100601 0.625696 0.846477
0.406345 0.667689 0.909914
0.839925 0.674470 0.905863
0.982463 0.698691 0.896688
0.000000 0.690709 0.843969
0.050306 0.701981 0.854904
0.100601 0.726356 0.879017
0.303112 0.792981 0.931698
0.829648 0.851927 0.942493
0.991049 0.864507 0.937246
0.000000 0.783117 0.872225
0.050306 0.791185 0.878296
0.100601 0.802764 0.888335
0.150911 0.880588 0.945341
0.764238 0.956299 0.966342
0.990155 0.977005 0.964999
