example/android/src/androidTest/assets/test_correct.cube
LUT_3D_SIZE 16
0.009325 0.040173 0.039843
0.041526 0.044894 0.039674
0.074110 0.050704 0.037695
0.116512 0.055590 0.033574
0.169409 0.059729 0.025949
0.231789 0.065547 0.013701
0.301317 0.068580 0.000871
0.373840 0.069031 0.000000
0.443737 0.066973 0.000000
0.492804 0.067493 0.000000
0.552230 0.068888 0.000000
0.606013 0.072394 0.000000
0.659028 0.074773 0.000000
0.708115 0.081423 0.000000
0.755041 0.091943 0.000000
0.798261 0.093745 0.000000
0.000000 0.066849 0.041397
0.037716 0.068995 0.040336
0.079618 0.072593 0.038034
0.122381 0.077728 0.034661
0.177516 0.084200 0.027176
0.242563 0.090703 0.011674
0.315775 0.094809 0.000448
0.389970 0.097239 0.000000
0.461403 0.098331 0.000000
0.526930 0.100100 0.000000
0.574304 0.104564 0.000000
0.626434 0.110940 0.000000
0.677248 0.115767 0.000000
0.722321 0.122358 0.000000
0.765901 0.130604 0.000000
0.806969 0.133137 0.000000
0.000000 0.097105 0.039742
0.023131 0.098555 0.039412
0.080984 0.100289 0.037361
0.135685 0.100258 0.030175
0.195529 0.107081 0.019352
0.263323 0.115904 0.003224
0.337927 0.122755 0.000000
0.414564 0.129315 0.000000
0.487841 0.134787 0.000000
0.553873 0.141249 0.000000
0.610960 0.148632 0.000000
0.659085 0.155620 0.000000
0.700499 0.162685 0.000000
0.740927 0.170070 0.000000
0.779436 0.179727 0.000000
0.817950 0.187921 0.000000
0.000000 0.127701 0.038435
0.017928 0.127886 0.036802
0.076790 0.131283 0.037812
0.142778 0.133283 0.029568
0.213013 0.133696 0.014143
0.289805 0.139321 0.000000
0.370337 0.146984 0.000000
0.450958 0.154776 0.000000
0.521435 0.165448 0.000000
0.580354 0.176784 0.000000
0.631761 0.186899 0.000000
0.679479 0.195148 0.000000
0.721292 0.203103 0.000000
0.758783 0.212467 0.000000
0.794466 0.222880 0.000000
0.830140 0.233717 0.000000
0.000000 0.160401 0.041088
0.016774 0.160940 0.036366
0.067410 0.162978 0.035638
0.153689 0.172237 0.024819
0.225612 0.173674 0.008334
0.310957 0.172383 0.000000
0.401930 0.175002 0.000000
0.480249 0.182605 0.000000
0.549789 0.195439 0.000000
0.609440 0.207933 0.000000
0.660883 0.217768 0.000000
0.704626 0.226810 0.000000
0.743264 0.236553 0.000000
0.778042 0.248321 0.000000
0.812144 0.259968 0.000000
0.842890 0.275714 0.000000
0.000000 0.192891 0.042278
0.016774 0.195495 0.037706
0.056479 0.197534 0.033292
0.156889 0.208657 0.020556
0.245764 0.220280 0.000000
0.333034 0.218539 0.000000
0.427519 0.217451 0.000000
0.506844 0.218195 0.000000
0.579627 0.228075 0.000000
0.639431 0.239302 0.000000
0.685126 0.249150 0.000000
0.726098 0.260119 0.000000
0.760634 0.272074 0.000000
0.794613 0.283506 0.000000
0.823776 0.296966 0.000000
0.853482 0.314315 0.000000
0.000000 0.226741 0.044544
0.016774 0.231596 0.039223
0.054323 0.234921 0.028217
0.163086 0.245194 0.013460
0.272723 0.266252 0.000000
0.363015 0.279707 0.000000
0.454586 0.272873 0.000000
0.538315 0.269563 0.000000
0.605275 0.272722 0.000000
0.658783 0.278038 0.000000
0.704064 0.285896 0.000000
0.741365 0.295025 0.000000
0.775360 0.306690 0.000000
0.805007 0.318574 0.000000
0.832788 0.334531 0.000000
0.860164 0.354527 0.000000
0.000000 0.259470 0.046445
0.016774 0.266503 0.039164
0.058215 0.271485 0.022756
0.171537 0.283729 0.005743
0.292222 0.311334 0.000000
0.392539 0.329798 0.000000
0.487687 0.347159 0.000000
0.568302 0.330415 0.000000
0.634573 0.331552 0.000000
0.683535 0.333210 0.000000
0.722113 0.335954 0.000000
0.754827 0.337561 0.000000
0.788065 0.344738 0.000000
0.814396 0.356186 0.000000
0.841914 0.372623 0.000000
0.867971 0.391255 0.000000
0.000000 0.296131 0.052103
0.016774 0.302105 0.038531
0.056923 0.309222 0.010606
0.186218 0.325910 0.000000
0.306745 0.354915 0.000000
0.428083 0.381602 0.000000
0.516769 0.404039 0.000000
0.595240 0.416669 0.000000
0.659490 0.401365 0.000000
0.706905 0.399076 0.000000
0.742136 0.397888 0.000000
0.772242 0.394701 0.000000
0.799243 0.393849 0.000000
0.824470 0.397738 0.000000
0.850093 0.409216 0.000000
0.875335 0.425741 0.000000
0.000000 0.332018 0.056586
0.016774 0.336986 0.034773
0.068551 0.347182 0.000000
0.203427 0.366546 0.000000
0.326127 0.399060 0.000000
0.453357 0.436157 0.000000
0.549495 0.461719 0.000000
0.624520 0.489575 0.000000
0.679160 0.491893 0.000000
0.727085 0.471809 0.000000
0.762369 0.464180 0.000000
0.790244 0.458436 0.000000
0.814303 0.453664 0.000000
0.836877 0.448786 0.000000
0.858517 0.450276 0.000000
0.883380 0.462914 0.000000
0.000000 0.366693 0.059960
0.016774 0.373029 0.027403
0.080576 0.386777 0.000000
0.219202 0.409976 0.000000
0.342601 0.444364 0.000000
0.470565 0.485742 0.000000
0.574533 0.516885 0.000000
0.640986 0.540103 0.000000
0.710564 0.572540 0.000000
0.746406 0.562746 0.000000
0.782519 0.540955 0.000000
0.808051 0.527143 0.000000
0.830823 0.518289 0.000000
0.851021 0.509171 0.000000
0.870612 0.502067 0.000000
0.891132 0.503584 0.000000
0.000000 0.404605 0.065251
0.016774 0.409858 0.020057
0.092626 0.425797 0.000000
0.234114 0.452279 0.000000
0.357688 0.486199 0.000000
0.483203 0.529868 0.000000
0.587388 0.567422 0.000000
0.666499 0.596139 0.000000
0.718077 0.614437 0.000000
0.769748 0.637888 0.000000
0.800229 0.627708 0.000000
0.828412 0.605058 0.000000
0.850125 0.589600 0.000000
0.869442 0.577407 0.000000
0.886200 0.564994 0.000000
0.901776 0.552586 0.000000
0.000000 0.441103 0.070286
0.017005 0.445159 0.014267
0.105464 0.462043 0.000000
0.243408 0.489736 0.000000
0.369457 0.524796 0.000000
0.493054 0.570156 0.000000
0.598113 0.611660 0.000000
0.679177 0.641582 0.000000
0.735730 0.659943 0.000000
0.773836 0.675268 0.000000
0.817673 0.695808 0.000000
0.843745 0.686833 0.000000
0.868916 0.665645 0.000000
0.889190 0.648378 0.000000
0.904970 0.633870 0.000000
0.920156 0.617150 0.000000
0.000000 0.474000 0.074801
0.018342 0.477988 0.010149
0.112763 0.495443 0.000000
0.251785 0.525147 0.000000
0.377993 0.562811 0.000000
0.500972 0.608619 0.000000
0.606441 0.650631 0.000000
0.684631 0.679847 0.000000
0.746850 0.703469 0.000000
0.787747 0.717153 0.000000
0.820509 0.727730 0.000000
0.857292 0.743216 0.000000
0.883178 0.739179 0.000000
0.905491 0.721744 0.000000
0.923399 0.705145 0.000000
0.938750 0.685898 0.000000
0.000000 0.505564 0.079100
0.018566 0.509436 0.008997
0.111710 0.528569 0.000000
0.257577 0.559849 0.000000
0.382200 0.597379 0.000000
0.504705 0.643283 0.000000
0.610095 0.684653 0.000000
0.686717 0.715115 0.000000
0.749218 0.738512 0.000000
0.796042 0.751806 0.000000
0.829768 0.762258 0.000000
0.858311 0.772234 0.000000
0.892606 0.787722 0.000000
0.916694 0.786353 0.000000
0.936819 0.771063 0.000000
0.955508 0.753917 0.000000
0.000000 0.535052 0.081932
0.017503 0.540349 0.013069
0.104210 0.559996 0.000000
0.256005 0.591575 0.000000
0.381466 0.628766 0.000000
0.501285 0.673787 0.000000
0.607882 0.720346 0.000000
0.688467 0.754516 0.000000
0.746473 0.769742 0.000000
0.794785 0.786145 0.000000
0.836108 0.799919 0.000000
0.867502 0.806984 0.000000
0.892098 0.810692 0.000000
0.922195 0.823205 0.000000
0.947753 0.826203 0.000000
0.967607 0.813671 0.000000
0.003046 0.045461 0.062996
0.040348 0.049752 0.066750
0.082898 0.054008 0.065137
0.128131 0.056506 0.059141
0.184846 0.058309 0.049949
0.250716 0.062179 0.038471
0.325161 0.063999 0.019919
0.400421 0.063054 0.017179
0.473143 0.060590 0.017179
0.538093 0.061448 0.017179
0.587499 0.063409 0.017179
0.629686 0.067179 0.017179
0.674376 0.070388 0.017179
0.715423 0.075503 0.017179
0.757386 0.080591 0.017179
0.797758 0.071940 0.017179
0.000000 0.071136 0.070837
0.020519 0.073775 0.073948
0.070979 0.080313 0.074871
0.121882 0.085761 0.070165
0.180062 0.089792 0.061973
0.251181 0.094014 0.049108
0.326478 0.096542 0.029613
0.404428 0.095567 0.017194
0.476789 0.091896 0.017179
0.542316 0.090318 0.017179
0.597890 0.092087 0.017179
0.646442 0.096522 0.017179
0.687419 0.103199 0.017179
0.727035 0.111403 0.017179
0.765311 0.119146 0.017179
0.806156 0.121188 0.017179
0.000000 0.101554 0.073868
0.016774 0.103589 0.073476
0.061047 0.108184 0.073202
0.128298 0.111798 0.071583
0.191260 0.119143 0.065482
0.263500 0.126104 0.053102
0.342622 0.131701 0.033267
0.422878 0.133473 0.017295
0.498785 0.133911 0.017179
0.565600 0.135041 0.017179
0.622095 0.138998 0.017179
0.673691 0.143678 0.017179
0.715617 0.148081 0.017179
0.754883 0.155277 0.017179
0.787422 0.162245 0.017179
0.820018 0.171929 0.017179
0.000000 0.130828 0.070942
0.016774 0.135334 0.070059
0.047334 0.139640 0.067644
0.138384 0.141452 0.063249
0.210626 0.142273 0.055968
0.288981 0.149566 0.035405
0.370922 0.156844 0.019830
0.452362 0.163944 0.017192
0.529278 0.171443 0.017179
0.594592 0.179152 0.017179
0.650653 0.187851 0.017179
0.700154 0.194974 0.017179
0.742088 0.200655 0.017179
0.777978 0.209128 0.017179
0.809018 0.219617 0.017179
0.838328 0.228415 0.017179
0.000000 0.154733 0.067412
0.016774 0.169096 0.067696
0.040630 0.171880 0.061467
0.138926 0.179523 0.058301
0.224176 0.183284 0.047125
0.312287 0.181163 0.023747
0.404263 0.183052 0.017210
0.488514 0.191190 0.017179
0.562597 0.202042 0.017179
0.622829 0.214358 0.017179
0.674131 0.224143 0.017179
0.717561 0.233060 0.017179
0.755923 0.244401 0.017179
0.788131 0.256160 0.017179
0.818938 0.266965 0.017179
0.845714 0.280432 0.017179
0.000000 0.181586 0.067619
0.016774 0.204128 0.068352
0.036952 0.207406 0.058847
0.132466 0.215463 0.055751
0.245220 0.230363 0.024030
0.332428 0.229135 0.017614
0.429905 0.224766 0.017179
0.519475 0.225632 0.017179
0.587780 0.234678 0.017179
0.642356 0.246555 0.017179
0.686925 0.257267 0.017179
0.726646 0.268649 0.017179
0.761066 0.280057 0.017179
0.795041 0.292161 0.017179
0.824498 0.304674 0.017179
0.852010 0.321692 0.017179
0.000000 0.212508 0.072324
0.016774 0.239417 0.070106
0.037554 0.243604 0.056294
0.134137 0.252351 0.049130
0.262879 0.273983 0.021630
0.363159 0.287774 0.017179
0.457769 0.282922 0.017179
0.548436 0.278386 0.017179
0.612677 0.281129 0.017179
0.661759 0.285144 0.017179
0.703162 0.293919 0.017179
0.740490 0.304255 0.017179
0.774335 0.315631 0.017179
0.805848 0.328137 0.017179
0.833278 0.343597 0.017179
0.861249 0.362314 0.017179
0.000000 0.254378 0.078761
0.016774 0.274507 0.072289
0.036913 0.281030 0.051063
0.144761 0.292525 0.036660
0.274843 0.316563 0.020345
0.400944 0.341905 0.017179
0.495744 0.358882 0.017179
0.577872 0.343355 0.017179
0.639544 0.341255 0.017179
0.685788 0.341495 0.017179
0.722166 0.343318 0.017179
0.755064 0.345216 0.017179
0.788584 0.353290 0.017179
0.815613 0.365498 0.017179
0.843834 0.381431 0.017179
0.869451 0.398761 0.017179
0.000000 0.300013 0.085670
0.016774 0.310846 0.074316
0.038778 0.317833 0.040345
0.159207 0.333641 0.021216
0.289016 0.358473 0.017533
0.428580 0.394186 0.017179
0.523485 0.414410 0.017179
0.610012 0.435226 0.017179
0.661068 0.412852 0.017179
0.706197 0.406785 0.017179
0.742180 0.405080 0.017179
0.772247 0.401841 0.017179
0.800430 0.401360 0.017179
0.825584 0.404811 0.017179
0.852006 0.416774 0.017179
0.877064 0.433391 0.017179
0.000000 0.335654 0.090257
0.016774 0.346464 0.073975
0.042439 0.354073 0.030988
0.177462 0.374384 0.017215
0.306748 0.402608 0.017179
0.448287 0.447073 0.017179
0.556073 0.473754 0.017179
0.624516 0.495861 0.017179
0.686371 0.508051 0.017179
0.727613 0.481890 0.017179
0.762957 0.472553 0.017179
0.790286 0.465626 0.017179
0.814965 0.459885 0.017179
0.837681 0.455397 0.017179
0.859993 0.455950 0.017179
0.884647 0.468998 0.017179
0.000000 0.372031 0.096451
0.016774 0.384788 0.076187
0.045724 0.393318 0.023956
0.188796 0.418449 0.017179
0.322136 0.448363 0.017179
0.459728 0.491037 0.017179
0.577455 0.529462 0.017179
0.643791 0.548730 0.017179
0.708488 0.576690 0.017179
0.748842 0.574727 0.017179
0.783984 0.549859 0.017179
0.808536 0.533900 0.017179
0.831347 0.523641 0.017179
0.851539 0.513831 0.017179
0.871204 0.506326 0.017179
0.892122 0.508070 0.017179
0.000000 0.409955 0.104967
0.016774 0.422211 0.077936
0.050528 0.431708 0.019258
0.200192 0.458548 0.017179
0.335501 0.489111 0.017179
0.468838 0.531310 0.017179
0.592201 0.579111 0.017179
0.666736 0.603301 0.017179
0.718581 0.619218 0.017179
0.768295 0.641179 0.017179
0.801706 0.635665 0.017179
0.829648 0.612110 0.017179
0.851054 0.595598 0.017179
0.870001 0.581939 0.017179
0.886575 0.567943 0.017179
0.903086 0.556630 0.017179
0.000000 0.445663 0.112544
0.016774 0.457462 0.074647
0.061687 0.467343 0.018602
0.210266 0.494703 0.017179
0.346938 0.527874 0.017179
0.477545 0.570827 0.017179
0.598961 0.619097 0.017179
0.679990 0.648276 0.017179
0.737505 0.665953 0.017179
0.774228 0.679003 0.017179
0.816962 0.698157 0.017179
0.844646 0.691977 0.017179
0.869454 0.669760 0.017179
0.889426 0.652097 0.017179
0.905205 0.635531 0.017179
0.920485 0.618701 0.017179
0.000000 0.478193 0.118629
0.016774 0.490526 0.072308
0.067412 0.501391 0.018124
0.220218 0.529764 0.017179
0.356373 0.565175 0.017179
0.484580 0.607790 0.017179
0.601377 0.654251 0.017179
0.691218 0.689476 0.017179
0.745657 0.706992 0.017179
0.788764 0.720622 0.017179
0.820231 0.729133 0.017179
0.856568 0.744437 0.017179
0.883055 0.741147 0.017179
0.905591 0.723431 0.017179
0.923142 0.706422 0.017179
0.938494 0.686132 0.017179
0.000000 0.508721 0.124214
0.016774 0.521272 0.071897
0.062991 0.534194 0.017420
0.225768 0.563251 0.017179
0.361259 0.598762 0.017179
0.487538 0.640342 0.017179
0.603092 0.686351 0.017179
0.695983 0.724112 0.017179
0.752279 0.742792 0.017179
0.794361 0.753490 0.017179
0.830654 0.764804 0.017179
0.858753 0.773831 0.017179
0.891752 0.787647 0.017179
0.916530 0.786663 0.017179
0.936884 0.771651 0.017179
0.955261 0.753641 0.017179
0.000000 0.537457 0.129566
0.016774 0.550867 0.075224
0.053762 0.564993 0.017179
0.223894 0.593870 0.017179
0.360542 0.628879 0.017179
0.484057 0.669408 0.017179
0.599106 0.719172 0.017179
0.693650 0.760889 0.017179
0.758264 0.779375 0.017179
0.794098 0.788330 0.017179
0.835069 0.801473 0.017179
0.867962 0.808567 0.017179
0.892588 0.811923 0.017179
0.921526 0.822766 0.017179
0.947410 0.825923 0.017179
0.967735 0.813760 0.017179
0.000000 0.050175 0.089428
0.023592 0.053020 0.094922
0.089950 0.059590 0.097294
0.142993 0.064532 0.089444
0.203737 0.068167 0.081854
0.276510 0.071846 0.070000
0.354376 0.071772 0.052123
0.429816 0.068615 0.034372
0.502963 0.062697 0.034353
0.567685 0.059256 0.034353
0.624814 0.056502 0.034353
0.672882 0.059781 0.034353
0.715842 0.064374 0.034353
0.754359 0.065246 0.034353
0.784507 0.066182 0.034353
0.811814 0.078621 0.034353
0.000000 0.072420 0.098053
0.016981 0.077923 0.105161
0.068091 0.083520 0.108387
0.134463 0.090878 0.102780
0.197565 0.093759 0.093760
0.271077 0.095606 0.078596
0.351450 0.096071 0.061041
0.429582 0.093461 0.034893
0.503998 0.088017 0.034353
0.569747 0.083451 0.034353
0.626227 0.082280 0.034353
0.675465 0.084269 0.034353
0.717444 0.087295 0.034353
0.756272 0.092004 0.034353
0.786185 0.093939 0.034353
0.812988 0.102746 0.034353
0.000000 0.106310 0.114084
0.016774 0.109818 0.118655
0.039758 0.112463 0.118986
0.116577 0.120446 0.117922
0.187379 0.127986 0.112982
0.266427 0.132470 0.098903
0.349583 0.133985 0.080469
0.433484 0.132347 0.046021
0.509793 0.126107 0.034360
0.577407 0.121306 0.034353
0.634578 0.121244 0.034353
0.685892 0.122245 0.034353
0.727543 0.123262 0.034353
0.767412 0.127313 0.034353
0.802560 0.128058 0.034353
0.835285 0.137422 0.034353
0.000000 0.147065 0.128042
0.016774 0.147224 0.123365
0.033591 0.148362 0.117151
0.110651 0.151925 0.112337
0.198299 0.158569 0.113878
0.280524 0.168446 0.103485
0.367615 0.174889 0.086275
0.455699 0.178591 0.055621
0.537177 0.178294 0.037527
0.608186 0.177226 0.034542
0.665060 0.178027 0.034353
0.715746 0.179946 0.034353
0.758039 0.182620 0.034353
0.794939 0.187427 0.034353
0.827948 0.194498 0.034353
0.858205 0.203400 0.034353
0.000000 0.177899 0.123905
0.016774 0.178846 0.116392
0.033544 0.183909 0.109085
0.092927 0.188406 0.098526
0.216930 0.195727 0.093906
0.308063 0.194977 0.084928
0.400176 0.198102 0.055591
0.489619 0.205189 0.038285
0.571348 0.211087 0.034676
0.637230 0.217385 0.034353
0.694259 0.226216 0.034353
0.741882 0.233978 0.034353
0.783782 0.241778 0.034353
0.819627 0.251070 0.034353
0.851141 0.262063 0.034353
0.877256 0.273133 0.034353
0.000000 0.202528 0.116950
0.016774 0.208381 0.113396
0.033544 0.220917 0.106714
0.073896 0.224996 0.092745
0.228602 0.241497 0.078168
0.329165 0.244032 0.062904
0.429414 0.235623 0.041649
0.526543 0.232988 0.034353
0.603137 0.241739 0.034353
0.664853 0.252841 0.034353
0.715766 0.264624 0.034353
0.758962 0.275027 0.034353
0.796482 0.286999 0.034353
0.830323 0.300244 0.034353
0.857920 0.315946 0.034353
0.883505 0.333577 0.034353
0.000000 0.229677 0.116962
0.016774 0.240480 0.114114
0.033544 0.256333 0.104118
0.072074 0.263371 0.085819
0.230821 0.280766 0.074594
0.359987 0.299850 0.036485
0.458429 0.295936 0.034595
0.555995 0.286599 0.034353
0.629991 0.286474 0.034353
0.686622 0.293316 0.034353
0.730495 0.303369 0.034353
0.768894 0.315292 0.034353
0.802374 0.327654 0.034353
0.831408 0.342971 0.034353
0.857336 0.359173 0.034353
0.882085 0.376117 0.034353
0.000000 0.255676 0.117885
0.016774 0.277618 0.115668
0.033544 0.295428 0.101530
0.081793 0.303505 0.077301
0.239236 0.322058 0.064929
0.390299 0.352546 0.035310
0.496422 0.368583 0.034353
0.584494 0.356371 0.034353
0.656706 0.349881 0.034353
0.708724 0.350320 0.034353
0.746512 0.352042 0.034353
0.774686 0.356930 0.034353
0.804280 0.367929 0.034353
0.829766 0.381267 0.034353
0.856142 0.396323 0.034353
0.879185 0.412047 0.034353
0.000000 0.280879 0.118600
0.016774 0.317735 0.120380
0.033544 0.331235 0.097623
0.097246 0.342052 0.063970
0.255967 0.364333 0.050865
0.408468 0.401483 0.034784
0.531573 0.428797 0.034353
0.620544 0.451244 0.034353
0.680328 0.429007 0.034353
0.728199 0.419242 0.034353
0.764482 0.416485 0.034353
0.787882 0.413511 0.034353
0.809522 0.411442 0.034353
0.831349 0.416117 0.034353
0.857533 0.429237 0.034353
0.881380 0.445094 0.034353
0.000000 0.310712 0.122307
0.016774 0.354760 0.123834
0.033544 0.368165 0.092114
0.112792 0.383533 0.050375
0.274979 0.409865 0.036264
0.422871 0.449275 0.034675
0.559910 0.487690 0.034353
0.639881 0.509924 0.034353
0.707886 0.528014 0.034353
0.744303 0.499861 0.034353
0.776305 0.486990 0.034353
0.800784 0.477892 0.034353
0.822042 0.470497 0.034353
0.840420 0.463825 0.034353
0.862244 0.465220 0.034353
0.887055 0.479104 0.034353
0.000000 0.354093 0.135179
0.016774 0.392650 0.131229
0.033544 0.407811 0.087699
0.126358 0.426471 0.039922
0.291879 0.455118 0.034353
0.434015 0.492645 0.034353
0.574860 0.539405 0.034353
0.665917 0.568036 0.034353
0.720439 0.590679 0.034353
0.764454 0.594708 0.034353
0.791978 0.563548 0.034353
0.813337 0.544476 0.034353
0.834402 0.531777 0.034353
0.853462 0.521089 0.034353
0.872264 0.512476 0.034353
0.893763 0.515240 0.034353
0.000000 0.396691 0.148185
0.016774 0.431054 0.139397
0.034079 0.444251 0.084042
0.141493 0.464664 0.036894
0.306027 0.496247 0.034353
0.444982 0.534404 0.034353
0.582154 0.583776 0.034353
0.681307 0.619551 0.034353
0.735256 0.636228 0.034353
0.774793 0.650797 0.034353
0.807985 0.646926 0.034353
0.830925 0.619374 0.034353
0.852181 0.601857 0.034353
0.870413 0.587223 0.034353
0.887682 0.573014 0.034353
0.904449 0.561797 0.034353
0.000000 0.437233 0.161322
0.016774 0.465933 0.144531
0.036093 0.477578 0.078677
0.151014 0.500521 0.034882
0.318621 0.535615 0.034353
0.454650 0.574012 0.034353
0.584577 0.620571 0.034353
0.691284 0.661253 0.034353
0.750340 0.680211 0.034353
0.783779 0.689102 0.034353
0.819763 0.703145 0.034353
0.845107 0.697098 0.034353
0.870328 0.675124 0.034353
0.889670 0.656993 0.034353
0.906171 0.639436 0.034353
0.921125 0.622527 0.034353
0.000000 0.473517 0.173278
0.016774 0.498562 0.148723
0.035426 0.510866 0.074690
0.155372 0.535608 0.034353
0.328017 0.571866 0.034353
0.460975 0.608548 0.034353
0.587001 0.654461 0.034353
0.695331 0.695402 0.034353
0.762416 0.721787 0.034353
0.795341 0.727863 0.034353
0.824597 0.733905 0.034353
0.856614 0.746210 0.034353
0.883478 0.744605 0.034353
0.905955 0.726654 0.034353
0.923379 0.709533 0.034353
0.938285 0.687209 0.034353
0.000000 0.505773 0.181853
0.016774 0.529474 0.153708
0.033694 0.543253 0.071661
0.157436 0.568151 0.034353
0.332484 0.603888 0.034353
0.463570 0.639650 0.034353
0.587926 0.685486 0.034353
0.693633 0.725039 0.034353
0.769229 0.756624 0.034353
0.804243 0.762308 0.034353
0.833673 0.769110 0.034353
0.860799 0.777201 0.034353
0.891127 0.788313 0.034353
0.916503 0.787965 0.034353
0.937011 0.773222 0.034353
0.955052 0.754918 0.034353
0.000000 0.535301 0.187662
0.016774 0.557981 0.158562
0.033544 0.572978 0.070886
0.152120 0.597651 0.034353
0.330993 0.633031 0.034353
0.461913 0.668820 0.034353
0.582925 0.716273 0.034353
0.688161 0.761517 0.034353
0.762524 0.787352 0.034353
0.811282 0.801426 0.034353
0.842225 0.807218 0.034353
0.868373 0.810217 0.034353
0.893894 0.814148 0.034353
0.920791 0.822481 0.034353
0.947524 0.826535 0.034353
0.967288 0.813303 0.034353
0.000000 0.054361 0.119324
0.017332 0.057324 0.122488
0.070239 0.061733 0.128636
0.156304 0.073193 0.121876
0.226692 0.076710 0.112615
0.297877 0.079904 0.102340
0.381087 0.080572 0.084269
0.460850 0.075675 0.052361
0.532538 0.066329 0.051524
0.594646 0.059927 0.051524
0.648586 0.058133 0.051524
0.694752 0.057971 0.051524
0.737486 0.060473 0.051524
0.775143 0.059410 0.051524
0.809562 0.046575 0.051524
0.838073 0.052156 0.051524
0.000000 0.078434 0.127709
0.016774 0.083922 0.135209
0.044929 0.086557 0.138522
0.147122 0.097782 0.136639
0.218834 0.104372 0.127251
0.295078 0.107445 0.118541
0.378857 0.107927 0.100700
0.459987 0.102196 0.064770
0.534186 0.093534 0.052805
0.597278 0.085577 0.051638
0.651976 0.083383 0.051524
0.699025 0.081654 0.051524
0.741084 0.083345 0.051524
0.778950 0.082323 0.051524
0.813876 0.073356 0.051524
0.842983 0.077067 0.051524
0.000000 0.109244 0.142584
0.016774 0.113415 0.149761
0.033544 0.117027 0.155289
0.114178 0.124004 0.157374
0.205624 0.134624 0.147580
0.285665 0.138044 0.135404
0.370928 0.137512 0.117204
0.456809 0.133226 0.091599
0.533771 0.126381 0.062150
0.600021 0.117595 0.056076
0.655754 0.114455 0.053442
0.704159 0.111892 0.051876
0.745749 0.111021 0.051524
0.783403 0.110092 0.051524
0.817727 0.106355 0.051524
0.846334 0.110786 0.051524
0.000000 0.148706 0.163320
0.016774 0.157733 0.175720
0.033544 0.161896 0.181993
0.064168 0.160764 0.176856
0.183657 0.170494 0.171342
0.274705 0.180474 0.163863
0.368285 0.183969 0.147635
0.461426 0.182195 0.126236
0.543365 0.177231 0.099926
0.613701 0.171493 0.083086
0.670459 0.166557 0.068125
0.720601 0.163340 0.059212
0.763567 0.160596 0.053607
0.802171 0.160415 0.051958
0.836208 0.162281 0.051524
0.867714 0.170710 0.051524
0.000000 0.199543 0.188996
0.016774 0.207001 0.194956
0.033544 0.206357 0.187249
0.053323 0.202240 0.168885
0.183128 0.208875 0.160576
0.292593 0.218213 0.165130
0.390774 0.227260 0.153601
0.485754 0.233281 0.135325
0.571760 0.234017 0.110803
0.643673 0.235768 0.093910
0.703412 0.236850 0.078459
0.754069 0.237825 0.066797
0.798360 0.238202 0.059649
0.835108 0.239475 0.052331
0.869186 0.243203 0.051524
0.897766 0.249758 0.051524
0.000000 0.247508 0.205101
0.016774 0.240898 0.191277
0.033544 0.240950 0.179979
0.050306 0.241746 0.159589
0.164431 0.251026 0.143020
0.319938 0.261389 0.134750
0.425851 0.257324 0.129450
0.522230 0.257192 0.092227
0.605831 0.262384 0.075070
0.674359 0.269510 0.065319
0.732198 0.277273 0.059379
0.780635 0.285899 0.054442
0.823795 0.296106 0.051967
0.860302 0.305814 0.051524
0.892084 0.315517 0.051524
0.917711 0.325630 0.051524
0.000000 0.274253 0.196499
0.016774 0.265044 0.181652
0.033544 0.273646 0.174048
0.050306 0.280751 0.151804
0.152782 0.291680 0.133683
0.341038 0.314433 0.103806
0.453262 0.315636 0.091155
0.554678 0.300145 0.069278
0.639324 0.294520 0.055702
0.702913 0.299854 0.052075
0.753475 0.309361 0.051524
0.798443 0.321959 0.051524
0.835760 0.335111 0.051524
0.869451 0.350271 0.051524
0.897232 0.365003 0.051524
0.923953 0.383029 0.051524
0.000000 0.296598 0.189543
0.016774 0.290114 0.177306
0.033544 0.309741 0.171640
0.050306 0.319193 0.144147
0.163348 0.333328 0.120868
0.347780 0.360801 0.093061
0.490573 0.381391 0.053194
0.584908 0.373222 0.052550
